dist/upp/assets/img/submenu-6.svg

<svg width="33" height="32" viewBox="0 0 33 32" fill="none" xmlns="http://www.w3.org/2000/svg">
<g id="Business ready websites">
<g id="Group">
<path id="Vector" d="M2.14237 19.6346C2.05647 19.6346 1.97056 19.6346 1.88466 19.5487C1.71285 19.4628 1.62694 19.2051 1.62694 19.0333L2.05647 14.9099C2.05647 14.5662 2.05647 14.1367 1.88466 13.7931C1.45513 13.02 1.28333 12.1609 1.28333 11.3019C1.28333 7.26437 5.75036 4 11.3341 4C16.9179 4 21.385 7.26437 21.385 11.3019C21.385 15.3394 16.9179 18.6038 11.3341 18.6038C9.61606 18.6038 7.89797 18.2601 6.35169 17.6588C5.66445 17.4011 4.89131 17.487 4.28998 17.9165L2.48599 19.4628C2.40008 19.5487 2.22827 19.6346 2.14237 19.6346ZM11.3341 5.03085C6.35169 5.03085 2.31418 7.8657 2.31418 11.3019C2.31418 11.9891 2.48599 12.6764 2.82961 13.2777C3.08732 13.7931 3.17322 14.3944 3.17322 14.9958L2.82961 17.9165L3.77455 17.2293C4.6336 16.5421 5.83626 16.3702 6.86712 16.7998C8.24159 17.4011 9.78787 17.6588 11.4201 17.6588C16.4025 17.6588 20.44 14.824 20.44 11.3878C20.3541 7.8657 16.3166 5.03085 11.3341 5.03085Z" fill="#090909"/>
<path id="Vector_2" d="M6.86709 12.5904C7.5313 12.5904 8.06975 12.0519 8.06975 11.3877C8.06975 10.7235 7.5313 10.1851 6.86709 10.1851C6.20288 10.1851 5.66443 10.7235 5.66443 11.3877C5.66443 12.0519 6.20288 12.5904 6.86709 12.5904Z" fill="#090909"/>
<path id="Vector_3" d="M11.2482 12.5904C11.9124 12.5904 12.4509 12.0519 12.4509 11.3877C12.4509 10.7235 11.9124 10.1851 11.2482 10.1851C10.584 10.1851 10.0455 10.7235 10.0455 11.3877C10.0455 12.0519 10.584 12.5904 11.2482 12.5904Z" fill="#090909"/>
<path id="Vector_4" d="M15.7152 12.5904C16.3794 12.5904 16.9179 12.0519 16.9179 11.3877C16.9179 10.7235 16.3794 10.1851 15.7152 10.1851C15.051 10.1851 14.5126 10.7235 14.5126 11.3877C14.5126 12.0519 15.051 12.5904 15.7152 12.5904Z" fill="#090909"/>
<path id="Vector_5" d="M25.8521 21.7823C26.5163 21.7823 27.0547 21.2438 27.0547 20.5796C27.0547 19.9154 26.5163 19.377 25.8521 19.377C25.1879 19.377 24.6494 19.9154 24.6494 20.5796C24.6494 21.2438 25.1879 21.7823 25.8521 21.7823Z" fill="#090909"/>
<path id="Vector_6" d="M21.4709 21.7823C22.1351 21.7823 22.6735 21.2438 22.6735 20.5796C22.6735 19.9154 22.1351 19.377 21.4709 19.377C20.8066 19.377 20.2682 19.9154 20.2682 20.5796C20.2682 21.2438 20.8066 21.7823 21.4709 21.7823Z" fill="#090909"/>
<path id="Vector_7" d="M17.0897 21.7823C17.754 21.7823 18.2924 21.2438 18.2924 20.5796C18.2924 19.9154 17.754 19.377 17.0897 19.377C16.4255 19.377 15.8871 19.9154 15.8871 20.5796C15.8871 21.2438 16.4255 21.7823 17.0897 21.7823Z" fill="#090909"/>
<path id="Vector_8" d="M30.5768 28.7402C30.4909 28.7402 30.3191 28.7402 30.2332 28.6542L28.3433 27.1939C27.7419 26.7643 26.9688 26.5925 26.2816 26.9362C24.7353 27.5375 23.1031 27.8811 21.2991 27.8811C15.7153 27.8811 11.2483 24.6167 11.2483 20.5792C11.2483 19.7202 11.506 18.7752 11.9355 17.9162C12.0214 17.7444 12.1932 17.6585 12.365 17.6585C15.7153 17.4008 18.5502 15.7686 19.6669 13.621C19.7528 13.4492 19.9246 13.3632 20.0965 13.3632C20.526 13.3632 20.9555 13.2773 21.2991 13.2773C26.8829 13.2773 31.3499 16.5417 31.3499 20.5792C31.3499 21.4383 31.1781 22.2114 30.7486 22.9846C30.5768 23.3282 30.4909 23.7577 30.5768 24.1013L31.0063 28.2247C31.0063 28.3965 30.9204 28.6542 30.7486 28.7402C30.7486 28.7402 30.6627 28.7402 30.5768 28.7402ZM27.1406 25.6476C27.8279 25.6476 28.5151 25.9053 29.0305 26.3348L29.9755 27.0221L29.6318 24.1872C29.5459 23.5859 29.7178 23.0705 29.9755 22.4691C30.3191 21.7819 30.4909 21.1806 30.4909 20.4933C30.4909 17.0571 26.4534 14.2223 21.4709 14.2223C21.2132 14.2223 20.9555 14.2223 20.6119 14.2223C19.2374 16.5417 16.3167 18.1739 12.8805 18.6034C12.6228 19.2048 12.451 19.892 12.451 20.4933C12.451 23.9295 16.4885 26.7643 21.4709 26.7643C23.1031 26.7643 24.6494 26.4207 26.0239 25.9053C26.3675 25.7335 26.797 25.6476 27.1406 25.6476Z" fill="#090909"/>
<path id="Vector_9" d="M30.9204 14.7382C30.8345 14.7382 30.6627 14.7382 30.5768 14.6523C30.3191 14.4805 30.0614 14.2228 29.8037 14.051C29.546 13.8792 29.4601 13.5355 29.6319 13.3637C29.8037 13.106 30.1473 13.0201 30.3191 13.1919C30.6627 13.3637 30.9204 13.6214 31.1781 13.7933C31.4359 13.9651 31.4359 14.3087 31.2641 14.5664C31.2641 14.6523 31.0922 14.7382 30.9204 14.7382Z" fill="#090909"/>
<path id="Vector_10" d="M28.0856 13.0197C27.9997 13.0197 27.9138 13.0197 27.9138 12.9338C27.2265 12.6761 26.5393 12.4184 25.852 12.2466C25.5943 12.1607 25.4225 11.903 25.5084 11.6453C25.5943 11.3875 25.852 11.2157 26.1098 11.3016C26.8829 11.4735 27.656 11.7312 28.3433 12.0748C28.601 12.1607 28.6869 12.5043 28.601 12.762C28.5151 12.9338 28.3433 13.0197 28.0856 13.0197Z" fill="#090909"/>
<path id="Vector_11" d="M23.7045 11.8174C23.3609 11.8174 23.0172 11.7315 22.6736 11.7315C22.4159 11.7315 22.1582 11.4738 22.1582 11.2161C22.1582 10.9584 22.4159 10.7007 22.6736 10.7007C23.0172 10.7007 23.3609 10.7866 23.7045 10.7866C23.9622 10.7866 24.2199 11.0443 24.134 11.3879C24.2199 11.6456 23.9622 11.8174 23.7045 11.8174Z" fill="#090909"/>
</g>
</g>
</svg>

<svg width="33" height="32" fill="none" xmlns="http://www.w3.org/2000/svg"><g id="Business ready websites"><g id="Group" fill="#090909"><path id="Vector" d="M2.142 19.635c-.086 0-.171 0-.257-.086-.172-.086-.258-.344-.258-.516l.43-4.123c0-.344 0-.773-.172-1.117-.43-.773-.602-1.632-.602-2.491C1.283 7.264 5.75 4 11.334 4c5.584 0 10.051 3.264 10.051 7.302 0 4.037-4.467 7.302-10.05 7.302a13.88 13.88 0 01-4.983-.945 2.208 2.208 0 00-2.062.258l-1.804 1.546c-.086.086-.258.172-.344.172zM11.334 5.03c-4.982 0-9.02 2.835-9.02 6.27 0 .688.172 1.375.516 1.977.257.515.343 1.116.343 1.718l-.343 2.92.945-.687a3.088 3.088 0 013.092-.43c1.375.602 2.92.86 4.553.86 4.982 0 9.02-2.835 9.02-6.271-.086-3.522-4.123-6.357-9.106-6.357z"/><path id="Vector_2" d="M6.867 12.59a1.203 1.203 0 100-2.405 1.203 1.203 0 000 2.405z"/><path id="Vector_3" d="M11.248 12.59a1.203 1.203 0 100-2.405 1.203 1.203 0 000 2.405z"/><path id="Vector_4" d="M15.715 12.59a1.203 1.203 0 100-2.405 1.203 1.203 0 000 2.405z"/><path id="Vector_5" d="M25.852 21.782a1.203 1.203 0 100-2.405 1.203 1.203 0 000 2.405z"/><path id="Vector_6" d="M21.47 21.782a1.203 1.203 0 100-2.405 1.203 1.203 0 000 2.405z"/><path id="Vector_7" d="M17.09 21.782a1.203 1.203 0 100-2.405 1.203 1.203 0 000 2.405z"/><path id="Vector_8" d="M30.577 28.74c-.086 0-.258 0-.344-.086l-1.89-1.46c-.601-.43-1.374-.601-2.061-.258a13.534 13.534 0 01-4.983.945c-5.584 0-10.05-3.264-10.05-7.302 0-.859.257-1.804.686-2.663a.472.472 0 01.43-.258c3.35-.257 6.185-1.89 7.302-4.037a.473.473 0 01.43-.258c.429 0 .858-.086 1.202-.086 5.584 0 10.05 3.265 10.05 7.302 0 .86-.17 1.632-.6 2.406-.172.343-.258.773-.172 1.116l.43 4.124c0 .171-.087.43-.258.515h-.172zm-3.436-3.092c.687 0 1.374.257 1.89.687l.945.687-.344-2.835c-.086-.601.086-1.117.343-1.718.344-.687.516-1.288.516-1.976 0-3.436-4.038-6.27-9.02-6.27h-.86c-1.374 2.319-4.294 3.95-7.73 4.38-.258.602-.43 1.289-.43 1.89 0 3.437 4.037 6.271 9.02 6.271 1.632 0 3.178-.343 4.553-.859a2.645 2.645 0 011.117-.257z"/><path id="Vector_9" d="M30.92 14.738c-.086 0-.257 0-.343-.086-.258-.171-.516-.43-.773-.601-.258-.172-.344-.515-.172-.687.172-.258.515-.344.687-.172.344.172.601.43.86.601.257.172.257.516.085.773 0 .086-.172.172-.344.172z"/><path id="Vector_10" d="M28.086 13.02c-.086 0-.172 0-.172-.086-.688-.258-1.375-.516-2.062-.687-.258-.086-.43-.344-.344-.602.086-.258.344-.43.602-.343a9.82 9.82 0 012.233.773c.258.086.344.43.258.687-.086.172-.258.258-.515.258z"/><path id="Vector_11" d="M23.704 11.817c-.343 0-.687-.085-1.03-.085-.258 0-.516-.258-.516-.516s.258-.515.516-.515c.343 0 .687.086 1.03.086.258 0 .516.257.43.6.086.259-.172.43-.43.43z"/></g></g></svg>
